svg/alert.svg

<?xml version="1.0" encoding="UTF-8"?>
<svg xmlns="http://www.w3.org/2000/svg" xmlns:xlink="http://www.w3.org/1999/xlink" width="32" height="32" viewBox="0 0 32 32">
<path fill-rule="nonzero" fill="rgb(0%, 0%, 0%)" fill-opacity="1" d="M 30.542969 9.542969 C 28.304688 3.519531 22.46875 3.726562 18.96875 5.871094 L 16.28125 11.511719 L 21.257812 11.050781 L 16.132812 17.628906 L 20.347656 16.554688 L 17.703125 27 L 16.882812 19.933594 L 10.953125 21.203125 L 15.488281 13.984375 L 11.578125 13.414062 L 14.269531 7.230469 C 11.066406 4.035156 2.78125 3.445312 1.164062 11.109375 C -0.761719 20.234375 14.839844 25.902344 17.628906 27.464844 L 17.621094 27.5 L 17.65625 27.476562 L 17.695312 27.5 L 17.695312 27.453125 C 21.910156 24.738281 33.421875 17.273438 30.542969 9.542969 "/>
</svg>

<svg role="img" viewBox="0 0 32 32" xmlns="http://www.w3.org/2000/svg"><path d="M30.543 9.543c-2.238-6.023-8.074-5.816-11.574-3.672l-2.688 5.64 4.977-.46-5.125 6.578 4.215-1.074L17.703 27l-.82-7.066-5.93 1.27 4.535-7.22-3.91-.57L14.27 7.23C11.066 4.035 2.78 3.445 1.164 11.11-.762 20.233 14.84 25.901 17.63 27.464l-.008.035.035-.023.04.023v-.047c4.214-2.715 15.726-10.18 12.847-17.91" fill="rgb(0%, 0%, 0%)"/></svg>
